X:1
T:Kirsty MacFarlane
T:Kirsty MacFarlane
T:Carl Volti
C:Carl Volti
L:1/8
M:2/2
K:D
V:1 treble 
V:1
 A2 (AB) ABde | fedf edBd | A2 (AB) ABde |1 fedf e2 a2 :|2 fdec defg || a2 (ab) afde | fedf edBA | %7
 a2 (ab) afde | fedf e2 (fg) | a2 (ab) afde | fedf edBA | (AB) ABde | fdec d2 f2 || %13

